tools/download-figma-icons/icons/outlined-large/semi-detached-house-alternative.svg

<svg width="65" height="65" viewBox="0 0 65 65" fill="none" xmlns="http://www.w3.org/2000/svg">
<path fill-rule="evenodd" clip-rule="evenodd" d="M33.5266 0.411296L64.4945 29.3442L64.5148 29.3341C65.124 29.913 65.1646 30.8676 64.5858 31.487C64.2812 31.812 63.8751 31.9745 63.469 31.9745C63.1034 31.9745 62.7278 31.8425 62.4333 31.5683L59.9153 29.2224V63.4768C59.9153 64.3197 59.235 65.0001 58.3923 65.0001H6.60987C5.76714 65.0001 5.08686 64.3197 5.08686 63.4768V29.2224L2.56882 31.5683C1.95961 32.1472 0.995038 32.1167 0.416294 31.4972C-0.162451 30.8777 -0.131991 29.9231 0.487367 29.3442L31.4451 0.411296C32.034 -0.1371 32.9377 -0.1371 33.5266 0.411296ZM8.12273 26.3694V26.389V61.9535H13.1994V48.2334C13.1994 47.3905 13.8797 46.7101 14.7224 46.7101H23.8605C24.7033 46.7101 25.3835 47.3905 25.3835 48.2334V61.9535H30.9679V5.03204L8.12273 26.3694ZM16.2353 49.7568V61.9433H22.3274V49.7568H16.2353ZM42.6342 49.7568V61.9433H48.7262V49.7568H42.6342ZM56.849 61.9535V26.3992V26.3788L34.0038 5.03204V61.9535H39.5882V48.2334C39.5882 47.3905 40.2684 46.7101 41.1112 46.7101H50.2492C51.092 46.7101 51.7722 47.3905 51.7722 48.2334V61.9535H56.849ZM12.6918 38.5754H25.8912C26.7339 38.5754 27.4142 37.895 27.4142 37.0521V28.9277C27.4142 28.0848 26.7339 27.4044 25.8912 27.4044H12.6918C11.849 27.4044 11.1688 28.0848 11.1688 28.9277V37.0521C11.1688 37.895 11.849 38.5754 12.6918 38.5754ZM14.2148 30.4511H24.3682V35.5288H14.2148V30.4511ZM39.0906 38.5754H52.2901C53.1328 38.5754 53.8131 37.895 53.8131 37.0521V28.9277C53.8131 28.0848 53.1328 27.4044 52.2901 27.4044H39.0906C38.2479 27.4044 37.5676 28.0848 37.5676 28.9277V37.0521C37.5676 37.895 38.2479 38.5754 39.0906 38.5754ZM40.6136 30.4511H50.7671V35.5288H40.6136V30.4511Z" fill="black"/>
</svg>

<svg xmlns="http://www.w3.org/2000/svg" width="65" height="65" fill="none" viewBox="0 0 65 65"><path fill="currentColor" fill-rule="evenodd" d="m33.527.411 30.968 28.933.02-.01c.609.579.65 1.534.07 2.153a1.525 1.525 0 0 1-2.152.081l-2.518-2.346v34.255A1.52 1.52 0 0 1 58.392 65H6.61a1.52 1.52 0 0 1-1.523-1.523V29.222l-2.518 2.346a1.515 1.515 0 0 1-2.153-.07 1.515 1.515 0 0 1 .071-2.154L31.445.411a1.52 1.52 0 0 1 2.082 0M8.123 26.37v35.584h5.076v-13.72c0-.842.68-1.523 1.523-1.523h9.138c.843 0 1.524.68 1.524 1.523v13.72h5.584V5.032zm8.112 23.388v12.186h6.092V49.757zm26.4 0v12.186h6.091V49.757zm14.214 12.197V26.378L34.004 5.032v56.921h5.584v-13.72c0-.842.68-1.523 1.523-1.523h9.138c.843 0 1.523.68 1.523 1.523v13.72zm-44.157-23.38h13.2a1.52 1.52 0 0 0 1.522-1.523v-8.124c0-.843-.68-1.524-1.523-1.524h-13.2a1.52 1.52 0 0 0-1.522 1.524v8.124c0 .843.68 1.523 1.523 1.523m1.523-8.124h10.153v5.078H14.215zm24.876 8.124h13.2a1.52 1.52 0 0 0 1.522-1.523v-8.124c0-.843-.68-1.524-1.523-1.524h-13.2a1.52 1.52 0 0 0-1.522 1.524v8.124c0 .843.68 1.523 1.523 1.523m1.523-8.124h10.153v5.078H40.614z" clip-rule="evenodd"/></svg>
